X:85
T:Hermit. THO5.085
M:2/4
L:1/8
B:Thompson's Complete Collection of 200 Favourite Dances Vol.5
F:https://www.libraryofdance.org/manuals/1780c-Thompson-Compleat-5.pdf
Z:vmp. Peter Dunk 2024
Q:1/4=120
K:D
ddcd|efd2|aagf|(e/d/e/f/) e2|
ddcd|ef d2|aaAc|d2D2:|
aaff|ggee|ffdd|e/f/g/e/ d/c/B/A/|
aaff|ggee|f>a (g/f/e/d/)|Ha2-Ha2|
ddcd|efd2|aagf|(e/d/e/f/) e2|
ddcd|ef d2|aaAc|d2D2|]
W:
W:The 1st Couple lead through the 2nd & 3rd Ladies ./.
W:lead throught the 2nd & 3rd Gents, set 3 & 3 top and bottom ./:
W:the sideways and turn slowly round to the pause :/.
W:Hands six quite round :/:

